icons/numix/16x16/status/steam_tray_mono.svg

<?xml version="1.0" encoding="UTF-8" standalone="no"?>
<svg
   xmlns:dc="http://purl.org/dc/elements/1.1/"
   xmlns:cc="http://creativecommons.org/ns#"
   xmlns:rdf="http://www.w3.org/1999/02/22-rdf-syntax-ns#"
   xmlns:svg="http://www.w3.org/2000/svg"
   xmlns="http://www.w3.org/2000/svg"
   xmlns:sodipodi="http://sodipodi.sourceforge.net/DTD/sodipodi-0.dtd"
   xmlns:inkscape="http://www.inkscape.org/namespaces/inkscape"
   width="16"
   height="16"
   viewBox="0 0 16 16"
   id="svg2"
   version="1.1"
   inkscape:version="0.48.5 r10040"
   sodipodi:docname="steam_tray_mono.svg">
  <metadata
     id="metadata48">
    <rdf:RDF>
      <cc:Work
         rdf:about="">
        <dc:format>image/svg+xml</dc:format>
        <dc:type
           rdf:resource="http://purl.org/dc/dcmitype/StillImage" />
      </cc:Work>
    </rdf:RDF>
  </metadata>
  <sodipodi:namedview
     pagecolor="#ffffff"
     bordercolor="#666666"
     borderopacity="1"
     objecttolerance="10"
     gridtolerance="10"
     guidetolerance="10"
     inkscape:pageopacity="0"
     inkscape:pageshadow="2"
     inkscape:window-width="1280"
     inkscape:window-height="998"
     id="namedview46"
     showgrid="false"
     inkscape:zoom="29.5"
     inkscape:cx="8.3106293"
     inkscape:cy="6.2044586"
     inkscape:window-x="0"
     inkscape:window-y="0"
     inkscape:window-maximized="1"
     inkscape:current-layer="svg2" />
  <defs
     id="defs4">
    <filter
       id="0"
       filterUnits="objectBoundingBox"
       x="0"
       y="0"
       width="16"
       height="16">
      <feColorMatrix
         type="matrix"
         in="SourceGraphic"
         values="0 0 0 0 1 0 0 0 0 1 0 0 0 0 1 0 0 0 1 0"
         id="feColorMatrix7" />
    </filter>
    <mask
       id="1">
      <g
         filter="url(#0)"
         id="g10">
        <rect
           width="16"
           height="16"
           fill-opacity="0.302"
           id="rect12" />
      </g>
    </mask>
    <clipPath
       id="2">
      <rect
         width="16"
         height="16"
         id="rect15" />
    </clipPath>
    <g
       id="3"
       clip-path="url(#2)">
      <path
         d="M 11.679688 2.910156 C 10.105469 2.910156 8.816406 4.21875 8.816406 5.820312 C 8.816406 7.417969 10.105469 8.730469 11.679688 8.730469 C 13.253906 8.730469 14.546875 7.417969 14.546875 5.820312 C 14.546875 4.21875 13.253906 2.910156 11.679688 2.910156 Z M 11.679688 3.886719 C 12.738281 3.886719 13.585938 4.742188 13.585938 5.820312 C 13.585938 6.894531 12.738281 7.753906 11.679688 7.753906 C 10.621094 7.753906 9.777344 6.894531 9.777344 5.820312 C 9.777344 4.742188 10.621094 3.886719 11.679688 3.886719 Z "
         id="path18" />
      <path
         d="M 12.90625 5.816406 C 12.90625 6.503906 12.359375 7.0625 11.679688 7.0625 C 11.003906 7.0625 10.453125 6.503906 10.453125 5.816406 C 10.453125 5.128906 11.003906 4.570312 11.679688 4.570312 C 12.359375 4.570312 12.90625 5.128906 12.90625 5.816406 Z "
         id="path20" />
      <path
         d="M 9.226562 7.0625 L 9.226562 10.804688 L 11.269531 11.21875 L 13.019531 8.117188 L 11.195312 8.117188 Z "
         id="path22" />
      <path
         d="M 9.636719 10.386719 C 8.511719 10.386719 7.589844 11.324219 7.589844 12.46875 C 7.589844 13.609375 8.511719 14.546875 9.636719 14.546875 C 10.757812 14.546875 11.679688 13.609375 11.679688 12.46875 C 11.679688 11.324219 10.757812 10.386719 9.636719 10.386719 Z M 9.636719 11.085938 C 10.390625 11.085938 10.996094 11.699219 10.996094 12.46875 C 10.996094 13.234375 10.390625 13.847656 9.636719 13.847656 C 8.878906 13.847656 8.277344 13.234375 8.277344 12.46875 C 8.277344 11.699219 8.878906 11.085938 9.636719 11.085938 Z "
         id="path24" />
      <path
         d="M 3.5 7.476562 C 2.375 7.476562 1.453125 8.414062 1.453125 9.558594 C 1.453125 10.699219 2.375 11.636719 3.5 11.636719 C 4.625 11.636719 5.546875 10.699219 5.546875 9.558594 C 5.546875 8.414062 4.625 7.476562 3.5 7.476562 Z M 3.496094 8.308594 C 4.316406 8.308594 4.722656 8.726562 4.722656 9.558594 C 4.722656 10.386719 4.316406 10.804688 3.496094 10.804688 C 2.679688 10.804688 2.269531 10.386719 2.269531 9.558594 C 2.269531 8.726562 2.679688 8.308594 3.496094 8.308594 Z "
         id="path26" />
      <path
         d="M 3.949219 8.8125 C 3.484375 8.613281 2.949219 8.832031 2.753906 9.304688 C 2.554688 9.777344 2.773438 10.320312 3.238281 10.519531 L 9.316406 13.296875 C 9.78125 13.496094 10.316406 13.277344 10.511719 12.804688 C 10.710938 12.335938 10.492188 11.789062 10.027344 11.589844 Z "
         id="path28" />
    </g>
  </defs>
  <path
     style="fill:#ececec;fill-opacity:1"
     inkscape:connector-curvature="0"
     id="path34"
     d="m 11.679688,2.183594 c -1.574219,0 -2.863282,1.308594 -2.863282,2.90625 C 8.816406,6.691406 10.105469,8 11.679688,8 c 1.574218,0 2.867187,-1.308594 2.867187,-2.910156 0,-1.597656 -1.292969,-2.90625 -2.867187,-2.90625 z m 0,0.976562 c 1.058593,0 1.90625,0.855469 1.90625,1.929688 0,1.078125 -0.847657,1.933594 -1.90625,1.933594 -1.058594,0 -1.902344,-0.855469 -1.902344,-1.933594 0,-1.074219 0.84375,-1.929688 1.902344,-1.929688 z" />
  <path
     style="fill:#ececec;fill-opacity:1"
     inkscape:connector-curvature="0"
     id="path36"
     d="m 12.90625,5.089844 c 0,0.6875 -0.546875,1.246094 -1.226562,1.246094 -0.675782,0 -1.226563,-0.558594 -1.226563,-1.246094 0,-0.691406 0.550781,-1.25 1.226563,-1.25 0.679687,0 1.226562,0.558594 1.226562,1.25 z" />
  <path
     style="fill:#ececec;fill-opacity:1"
     inkscape:connector-curvature="0"
     id="path38"
     d="m 9.226562,6.335938 0,3.742187 2.042969,0.414063 1.75,-3.101563 -1.824219,0 z" />
  <path
     style="fill:#ececec;fill-opacity:1"
     inkscape:connector-curvature="0"
     id="path40"
     d="m 9.632812,9.660156 c -1.121093,0 -2.042968,0.9375 -2.042968,2.078125 0,1.144531 0.921875,2.078125 2.042968,2.078125 1.125,0 2.046876,-0.933594 2.046876,-2.078125 0,-1.140625 -0.921876,-2.078125 -2.046876,-2.078125 z m 0,0.699219 c 0.757813,0 1.359376,0.613281 1.359376,1.378906 0,0.769531 -0.601563,1.382813 -1.359376,1.382813 -0.753906,0 -1.359374,-0.613282 -1.359374,-1.382813 0,-0.765625 0.605468,-1.378906 1.359374,-1.378906 z" />
  <path
     style="fill:#ececec;fill-opacity:1"
     inkscape:connector-curvature="0"
     id="path42"
     d="m 3.5,6.75 c -1.125,0 -2.046875,0.9375 -2.046875,2.078125 0,1.144531 0.921875,2.082031 2.046875,2.082031 1.125,0 2.046875,-0.9375 2.046875,-2.082031 C 5.546875,7.6875 4.625,6.75 3.5,6.75 z M 3.49609,7.582031 c 0.820312,0 1.226562,0.417969 1.226562,1.246094 0,0.832031 -0.40625,1.25 -1.226562,1.25 -0.816406,0 -1.226563,-0.417969 -1.226563,-1.25 C 2.269531,8 2.679688,7.582031 3.496094,7.582031 z" />
  <path
     style="fill:#ececec;fill-opacity:1"
     inkscape:connector-curvature="0"
     id="path44"
     d="m 3.949219,8.085938 c -0.464844,-0.199219 -1,0.019531 -1.195313,0.492187 -0.199218,0.472656 0.019532,1.015625 0.480469,1.214844 l 6.082031,2.777343 c 0.464844,0.199219 1,-0.01953 1.195313,-0.492187 0.199219,-0.46875 -0.01953,-1.015625 -0.484375,-1.214844 z" />
</svg>

<svg xmlns="http://www.w3.org/2000/svg" xmlns:xlink="http://www.w3.org/1999/xlink" width="16" height="16" viewBox="0 0 16 16">
 <defs>
  <filter id="0" filterUnits="objectBoundingBox" x="0" y="0" width="16" height="16">
   <feColorMatrix type="matrix" in="SourceGraphic" values="0 0 0 0 1 0 0 0 0 1 0 0 0 0 1 0 0 0 1 0"/>
  </filter>
  <mask id="1">
   <g filter="url(#0)">
    <rect width="16" height="16" fill-opacity="0.302"/>
   </g>
  </mask>
  <clipPath id="2">
   <rect width="16" height="16"/>
  </clipPath>
  <g id="3" clip-path="url(#2)">
   <path d="M 11.679688 2.910156 C 10.105469 2.910156 8.816406 4.21875 8.816406 5.820312 C 8.816406 7.417969 10.105469 8.730469 11.679688 8.730469 C 13.253906 8.730469 14.546875 7.417969 14.546875 5.820312 C 14.546875 4.21875 13.253906 2.910156 11.679688 2.910156 Z M 11.679688 3.886719 C 12.738281 3.886719 13.585938 4.742188 13.585938 5.820312 C 13.585938 6.894531 12.738281 7.753906 11.679688 7.753906 C 10.621094 7.753906 9.777344 6.894531 9.777344 5.820312 C 9.777344 4.742188 10.621094 3.886719 11.679688 3.886719 Z "/>
   <path d="M 12.90625 5.816406 C 12.90625 6.503906 12.359375 7.0625 11.679688 7.0625 C 11.003906 7.0625 10.453125 6.503906 10.453125 5.816406 C 10.453125 5.128906 11.003906 4.570312 11.679688 4.570312 C 12.359375 4.570312 12.90625 5.128906 12.90625 5.816406 Z "/>
   <path d="M 9.226562 7.0625 L 9.226562 10.804688 L 11.269531 11.21875 L 13.019531 8.117188 L 11.195312 8.117188 Z "/>
   <path d="M 9.636719 10.386719 C 8.511719 10.386719 7.589844 11.324219 7.589844 12.46875 C 7.589844 13.609375 8.511719 14.546875 9.636719 14.546875 C 10.757812 14.546875 11.679688 13.609375 11.679688 12.46875 C 11.679688 11.324219 10.757812 10.386719 9.636719 10.386719 Z M 9.636719 11.085938 C 10.390625 11.085938 10.996094 11.699219 10.996094 12.46875 C 10.996094 13.234375 10.390625 13.847656 9.636719 13.847656 C 8.878906 13.847656 8.277344 13.234375 8.277344 12.46875 C 8.277344 11.699219 8.878906 11.085938 9.636719 11.085938 Z "/>
   <path d="M 3.5 7.476562 C 2.375 7.476562 1.453125 8.414062 1.453125 9.558594 C 1.453125 10.699219 2.375 11.636719 3.5 11.636719 C 4.625 11.636719 5.546875 10.699219 5.546875 9.558594 C 5.546875 8.414062 4.625 7.476562 3.5 7.476562 Z M 3.496094 8.308594 C 4.316406 8.308594 4.722656 8.726562 4.722656 9.558594 C 4.722656 10.386719 4.316406 10.804688 3.496094 10.804688 C 2.679688 10.804688 2.269531 10.386719 2.269531 9.558594 C 2.269531 8.726562 2.679688 8.308594 3.496094 8.308594 Z "/>
   <path d="M 3.949219 8.8125 C 3.484375 8.613281 2.949219 8.832031 2.753906 9.304688 C 2.554688 9.777344 2.773438 10.320312 3.238281 10.519531 L 9.316406 13.296875 C 9.78125 13.496094 10.316406 13.277344 10.511719 12.804688 C 10.710938 12.335938 10.492188 11.789062 10.027344 11.589844 Z "/>
  </g>
 </defs>
 <g>
  <use xlink:href="#3" mask="url(#1)"/>
  <path d="M 11.679688 2.183594 C 10.105469 2.183594 8.816406 3.492188 8.816406 5.089844 C 8.816406 6.691406 10.105469 8 11.679688 8 C 13.253906 8 14.546875 6.691406 14.546875 5.089844 C 14.546875 3.492188 13.253906 2.183594 11.679688 2.183594 Z M 11.679688 3.160156 C 12.738281 3.160156 13.585938 4.015625 13.585938 5.089844 C 13.585938 6.167969 12.738281 7.023438 11.679688 7.023438 C 10.621094 7.023438 9.777344 6.167969 9.777344 5.089844 C 9.777344 4.015625 10.621094 3.160156 11.679688 3.160156 Z " fill="#dcdcdc"/>
  <path d="M 12.90625 5.089844 C 12.90625 5.777344 12.359375 6.335938 11.679688 6.335938 C 11.003906 6.335938 10.453125 5.777344 10.453125 5.089844 C 10.453125 4.398438 11.003906 3.839844 11.679688 3.839844 C 12.359375 3.839844 12.90625 4.398438 12.90625 5.089844 Z " fill="#dcdcdc"/>
  <path d="M 9.226562 6.335938 L 9.226562 10.078125 L 11.269531 10.492188 L 13.019531 7.390625 L 11.195312 7.390625 Z " fill="#dcdcdc"/>
  <path d="M 9.632812 9.660156 C 8.511719 9.660156 7.589844 10.597656 7.589844 11.738281 C 7.589844 12.882812 8.511719 13.816406 9.632812 13.816406 C 10.757812 13.816406 11.679688 12.882812 11.679688 11.738281 C 11.679688 10.597656 10.757812 9.660156 9.632812 9.660156 Z M 9.632812 10.359375 C 10.390625 10.359375 10.992188 10.972656 10.992188 11.738281 C 10.992188 12.507812 10.390625 13.121094 9.632812 13.121094 C 8.878906 13.121094 8.273438 12.507812 8.273438 11.738281 C 8.273438 10.972656 8.878906 10.359375 9.632812 10.359375 Z " fill="#dcdcdc"/>
  <path d="M 3.5 6.75 C 2.375 6.75 1.453125 7.6875 1.453125 8.828125 C 1.453125 9.972656 2.375 10.910156 3.5 10.910156 C 4.625 10.910156 5.546875 9.972656 5.546875 8.828125 C 5.546875 7.6875 4.625 6.75 3.5 6.75 Z M 3.496094 7.582031 C 4.316406 7.582031 4.722656 8 4.722656 8.828125 C 4.722656 9.660156 4.316406 10.078125 3.496094 10.078125 C 2.679688 10.078125 2.269531 9.660156 2.269531 8.828125 C 2.269531 8 2.679688 7.582031 3.496094 7.582031 Z " fill="#dcdcdc"/>
  <path d="M 3.949219 8.085938 C 3.484375 7.886719 2.949219 8.105469 2.753906 8.578125 C 2.554688 9.050781 2.773438 9.59375 3.234375 9.792969 L 9.316406 12.570312 C 9.78125 12.769531 10.316406 12.550781 10.511719 12.078125 C 10.710938 11.609375 10.492188 11.0625 10.027344 10.863281 Z " fill="#dcdcdc"/>
 </g>
</svg>
